dist/2.0.0/img/icon-spotify.svg

<?xml version="1.0" encoding="UTF-8" standalone="no"?>
<svg width="25px" height="25px" viewBox="0 0 25 25" version="1.1" xmlns="http://www.w3.org/2000/svg" xmlns:xlink="http://www.w3.org/1999/xlink" xmlns:sketch="http://www.bohemiancoding.com/sketch/ns">
    <!-- Generator: Sketch 3.3 (11970) - http://www.bohemiancoding.com/sketch -->
    <title>icon-spotify</title>
    <desc>Created with Sketch.</desc>
    <defs></defs>
    <g id="Desktop" stroke="none" stroke-width="1" fill="none" fill-rule="evenodd" sketch:type="MSPage">
        <g id="Desktop-HD" sketch:type="MSArtboardGroup" transform="translate(-535.000000, -380.000000)" fill="#0A0B09">
            <g id="icon-spotify" sketch:type="MSLayerGroup" transform="translate(535.000000, 380.000000)">
                <path d="M6.62773684,22.5764211 C8.42052632,23.6356316 10.3501053,24.1525263 12.4697368,24.1525263 C14.5893684,24.1525263 16.5455789,23.6356316 18.3117368,22.5764211 C20.1045263,21.5438421 21.5172105,20.1311579 22.5497895,18.3371579 C23.6102105,16.571 24.1258947,14.6147895 24.1258947,12.4951579 C24.1258947,10.4033684 23.6102105,8.44715789 22.5497895,6.65436842 C21.5172105,4.88821053 20.1045263,3.47431579 18.3117368,2.41510526 C16.5455789,1.38252632 14.5893684,0.866842105 12.4697368,0.866842105 C10.3501053,0.866842105 8.42052632,1.38252632 6.62773684,2.41510526 C4.86157895,3.47431579 3.44889474,4.88821053 2.38968421,6.65436842 C1.35710526,8.44715789 0.840210526,10.4033684 0.840210526,12.4951579 C0.840210526,14.6147895 1.35710526,16.571 2.38968421,18.3371579 C3.44889474,20.1311579 4.86157895,21.5438421 6.62773684,22.5764211 L6.62773684,22.5764211 Z M4.67152632,8.03921053 C4.80710526,7.877 5.025,7.74021053 5.24168421,7.65910526 C6.87226316,7.19668421 8.69289474,6.95215789 10.7580526,6.95215789 C12.5508421,6.95215789 14.2903684,7.14342105 15.9742105,7.52352632 C17.6592632,7.90363158 19.1530526,8.44715789 20.4301579,9.18073684 C20.8381053,9.42526316 21.0281579,9.77873684 21.0281579,10.2399474 C21.0281579,10.5667895 20.9192105,10.8379474 20.7025263,11.028 C20.4846316,11.2458947 20.2134737,11.3548421 19.9144737,11.3548421 C19.7244211,11.3548421 19.5343684,11.2725263 19.3164737,11.1647895 C18.2572632,10.5389474 16.9801579,10.0777368 15.4585263,9.72426316 C13.9368947,9.37078947 12.3886316,9.20736842 10.7846842,9.20736842 C9.01852632,9.20736842 7.47026316,9.39863158 6.11205263,9.77873684 C5.83968421,9.85984211 5.62178947,9.88768421 5.51405263,9.88768421 C5.21505263,9.88768421 4.94268421,9.77873684 4.726,9.56084211 C4.53594737,9.37078947 4.427,9.09963158 4.427,8.77278947 C4.427,8.47378947 4.50810526,8.22926316 4.67152632,8.03921053 L4.67152632,8.03921053 Z M5.94863158,11.5993684 C7.47026316,11.1647895 8.99189474,10.9468947 10.5401579,10.9468947 C13.6645263,10.9468947 16.4366316,11.6538421 18.8274211,13.0931579 C19.1808947,13.3110526 19.3709474,13.6100526 19.3709474,14.0167895 C19.3709474,14.2613158 19.2898421,14.4792105 19.0997895,14.6426316 C18.9363684,14.8326842 18.7184737,14.9137895 18.4739474,14.9137895 C18.3117368,14.9137895 18.1216842,14.8593158 17.8771579,14.7237368 C15.7841579,13.4732632 13.3122632,12.8486316 10.4856842,12.8486316 C9.18194737,12.8486316 7.90484211,13.0120526 6.68221053,13.3376842 C6.38321053,13.42 6.19315789,13.4732632 6.11205263,13.4732632 C5.86752632,13.4732632 5.64963158,13.3921579 5.48621053,13.2021053 C5.29615789,13.0386842 5.21505263,12.822 5.21505263,12.5496316 C5.21505263,12.0339474 5.45957895,11.7071053 5.94863158,11.5993684 L5.94863158,11.5993684 Z M6.32873684,15.2672632 C7.90484211,14.9137895 9.34536842,14.7503684 10.6757368,14.7503684 C13.2577895,14.7503684 15.513,15.3217368 17.4692105,16.4898947 C17.7682105,16.6799474 17.9037895,16.9244737 17.9037895,17.2501053 C17.9037895,17.468 17.8493158,17.6314211 17.7137368,17.767 C17.5503158,17.9025789 17.3881053,17.9836842 17.1968421,17.9836842 C17.0612632,17.9836842 16.8978421,17.9304211 16.7077895,17.8214737 C14.9694737,16.7888947 12.9587895,16.272 10.6757368,16.272 C9.56205263,16.272 8.33942105,16.4087895 7.00784211,16.6799474 C6.68221053,16.7610526 6.49215789,16.7888947 6.43768421,16.7888947 C6.21978947,16.7888947 6.02973684,16.7065789 5.89415789,16.571 C5.75857895,16.4354211 5.70410526,16.2453684 5.70410526,16.0553158 C5.70410526,15.6207368 5.92078947,15.3483684 6.32873684,15.2672632 L6.32873684,15.2672632 Z" id="Fill-208" sketch:type="MSShapeGroup"></path>
            </g>
        </g>
    </g>
</svg>

<svg width="25" height="25" viewBox="0 0 25 25" xmlns="http://www.w3.org/2000/svg"><title>icon-spotify</title><path d="M6.628 22.576c1.793 1.06 3.722 1.577 5.842 1.577 2.12 0 4.076-.517 5.842-1.577a11.334 11.334 0 0 0 4.238-4.239c1.06-1.766 1.576-3.722 1.576-5.842 0-2.092-.516-4.048-1.576-5.84a11.74 11.74 0 0 0-4.238-4.24C16.546 1.383 14.589.867 12.47.867c-2.12 0-4.05.516-5.842 1.548a12.168 12.168 0 0 0-4.238 4.24 11.527 11.527 0 0 0-1.55 5.84c0 2.12.517 4.076 1.55 5.842 1.059 1.794 2.472 3.207 4.238 4.24zM4.672 8.04c.135-.162.353-.299.57-.38 1.63-.462 3.45-.707 5.516-.707 1.793 0 3.532.191 5.216.572 1.685.38 3.18.923 4.456 1.657.408.244.598.598.598 1.059 0 .327-.109.598-.325.788a1.09 1.09 0 0 1-.789.327c-.19 0-.38-.082-.598-.19-1.059-.626-2.336-1.087-3.857-1.44a20.52 20.52 0 0 0-4.674-.518c-1.766 0-3.315.192-4.673.572-.272.08-.49.109-.598.109a1.09 1.09 0 0 1-.788-.327c-.19-.19-.299-.461-.299-.788 0-.3.081-.544.245-.734zm1.277 3.56a16.6 16.6 0 0 1 4.591-.652c3.125 0 5.897.707 8.287 2.146.354.218.544.517.544.924a.79.79 0 0 1-.271.626.79.79 0 0 1-.626.27c-.162 0-.352-.054-.597-.19-2.093-1.25-4.565-1.874-7.391-1.874-1.304 0-2.581.163-3.804.489-.299.082-.489.135-.57.135a.79.79 0 0 1-.626-.27c-.19-.164-.27-.381-.27-.653 0-.516.244-.843.733-.95zm.38 3.668c1.576-.353 3.016-.517 4.347-.517 2.582 0 4.837.572 6.793 1.74.3.19.435.434.435.76 0 .218-.055.381-.19.517-.164.136-.326.217-.517.217-.136 0-.3-.054-.49-.163-1.738-1.032-3.748-1.549-6.031-1.549-1.114 0-2.337.137-3.668.408-.326.081-.516.109-.57.109a.76.76 0 0 1-.544-.218.717.717 0 0 1-.19-.516c0-.434.217-.707.625-.788z" fill="#0A0B09" fill-rule="evenodd"/></svg>
